X:832
T:The Ballintore fancy
R:Slide
O:Ireland
S:Leo Rowsome
B:Irish Traditional Music Session Tunes 3 p6
S:My arrangement from various sources
Z:Transcription:?, arr., chords:Mike Long
M:12/8
L:1/8
K:G
"G"G2B ~B3 G2B d2B|"G"G2B ~B3 "D"F2A c2A|\
"G"G2B ~B3 G2B d2B|"C"e2c A2G "D"F2G A2F:|
|:"Em"B2E ~E3 B2E G2A|"Em"B2E ~E3 "C"c3 B2c|\
"Em"B2E ~E3 B2E G2B|"C/D"A2G F2G [1 "D"A2D F2A:|[2 "D"A2c B2A|]
